svg/color/altb.svg

<?xml version="1.0" encoding="UTF-8" ?>
<!DOCTYPE svg PUBLIC "-//W3C//DTD SVG 1.1//EN" "http://www.w3.org/Graphics/SVG/1.1/DTD/svg11.dtd">
<svg width="250pt" height="250pt" viewBox="0 0 250 250" version="1.1" xmlns="http://www.w3.org/2000/svg">
<g id="#ffffffff">
<path fill="#ffffff" opacity="1.00" d=" M 0.00 0.00 L 35.70 0.00 C 26.64 0.96 17.82 4.90 11.42 11.44 C 4.90 17.83 0.97 26.63 0.00 35.67 L 0.00 0.00 Z" />
<path fill="#ffffff" opacity="1.00" d=" M 214.73 0.00 L 250.00 0.00 L 250.00 36.42 C 249.18 27.37 245.43 18.52 239.05 11.98 C 232.70 5.24 223.86 1.19 214.73 0.00 Z" />
<path fill="#ffffff" opacity="1.00" d=" M 116.24 63.09 C 124.64 62.58 133.76 61.60 141.50 65.69 C 146.14 68.10 149.98 71.97 152.45 76.58 C 156.81 84.52 161.20 92.44 165.54 100.39 C 168.15 104.89 165.85 111.20 161.02 113.06 C 157.17 114.68 152.21 113.34 149.99 109.73 C 144.87 100.89 140.30 91.73 135.08 82.96 C 130.28 75.65 118.17 76.32 114.12 84.03 C 96.07 116.70 78.14 149.44 60.12 182.12 C 58.22 186.05 53.19 188.14 49.10 186.56 C 45.37 185.49 43.08 181.73 42.83 178.00 C 43.07 174.55 45.19 171.70 46.74 168.73 C 63.67 137.98 80.59 107.23 97.50 76.47 C 101.24 69.42 108.35 64.31 116.24 63.09 Z" />
<path fill="#ffffff" opacity="1.00" d=" M 134.19 135.18 C 145.76 134.43 157.40 135.12 168.99 134.87 C 173.67 135.26 178.77 134.41 182.98 136.96 C 185.52 138.32 187.59 140.45 188.97 142.98 C 194.48 152.94 199.93 162.93 205.45 172.88 C 207.52 176.40 207.56 181.48 204.49 184.45 C 200.55 188.38 193.10 187.81 190.24 182.88 C 184.79 173.24 179.59 163.46 174.16 153.81 C 172.97 151.62 170.56 150.13 168.05 150.20 C 160.01 150.15 151.97 150.17 143.94 150.19 C 141.11 149.99 138.51 151.77 137.29 154.25 C 132.05 163.71 126.90 173.23 121.63 182.67 C 119.72 186.33 114.86 188.27 111.01 186.62 C 105.96 185.00 103.26 178.50 105.80 173.82 C 110.91 164.30 116.24 154.90 121.39 145.40 C 123.70 140.21 128.32 135.74 134.19 135.18 Z" />
<path fill="#ffffff" opacity="1.00" d=" M 238.50 238.52 C 245.21 231.88 249.22 222.74 250.00 213.36 L 250.00 250.00 L 213.48 250.00 C 222.80 249.17 231.89 245.20 238.50 238.52 Z" />
<path fill="#ffffff" opacity="1.00" d=" M 0.00 214.22 C 0.98 223.77 5.36 233.00 12.47 239.51 C 18.84 245.53 27.31 249.03 35.97 250.00 L 0.00 250.00 L 0.00 214.22 Z" />
</g>
<g id="#0046cbff">
<path fill="#0046cb" opacity="1.00" d=" M 35.70 0.00 L 214.73 0.00 C 223.86 1.19 232.70 5.24 239.05 11.98 C 245.43 18.52 249.18 27.37 250.00 36.42 L 250.00 213.36 C 249.22 222.74 245.21 231.88 238.50 238.52 C 231.89 245.20 222.80 249.17 213.48 250.00 L 35.97 250.00 C 27.31 249.03 18.84 245.53 12.47 239.51 C 5.36 233.00 0.98 223.77 0.00 214.22 L 0.00 35.67 C 0.97 26.63 4.90 17.83 11.42 11.44 C 17.82 4.90 26.64 0.96 35.70 0.00 M 116.24 63.09 C 108.35 64.31 101.24 69.42 97.50 76.47 C 80.59 107.23 63.67 137.98 46.74 168.73 C 45.19 171.70 43.07 174.55 42.83 178.00 C 43.08 181.73 45.37 185.49 49.10 186.56 C 53.19 188.14 58.22 186.05 60.12 182.12 C 78.14 149.44 96.07 116.70 114.12 84.03 C 118.17 76.32 130.28 75.65 135.08 82.96 C 140.30 91.73 144.87 100.89 149.99 109.73 C 152.21 113.34 157.17 114.68 161.02 113.06 C 165.85 111.20 168.15 104.89 165.54 100.39 C 161.20 92.44 156.81 84.52 152.45 76.58 C 149.98 71.97 146.14 68.10 141.50 65.69 C 133.76 61.60 124.64 62.58 116.24 63.09 M 134.19 135.18 C 128.32 135.74 123.70 140.21 121.39 145.40 C 116.24 154.90 110.91 164.30 105.80 173.82 C 103.26 178.50 105.96 185.00 111.01 186.62 C 114.86 188.27 119.72 186.33 121.63 182.67 C 126.90 173.23 132.05 163.71 137.29 154.25 C 138.51 151.77 141.11 149.99 143.94 150.19 C 151.97 150.17 160.01 150.15 168.05 150.20 C 170.56 150.13 172.97 151.62 174.16 153.81 C 179.59 163.46 184.79 173.24 190.24 182.88 C 193.10 187.81 200.55 188.38 204.49 184.45 C 207.56 181.48 207.52 176.40 205.45 172.88 C 199.93 162.93 194.48 152.94 188.97 142.98 C 187.59 140.45 185.52 138.32 182.98 136.96 C 178.77 134.41 173.67 135.26 168.99 134.87 C 157.40 135.12 145.76 134.43 134.19 135.18 Z" />
</g>
</svg>

<?xml version="1.0" encoding="utf-8"?>
<!-- Generator: Adobe Illustrator 26.0.3, SVG Export Plug-In . SVG Version: 6.00 Build 0)  -->
<svg version="1.1" id="Layer_1" xmlns="http://www.w3.org/2000/svg" xmlns:xlink="http://www.w3.org/1999/xlink" x="0px" y="0px"
	 viewBox="0 0 250 250" style="enable-background:new 0 0 250 250;" xml:space="preserve">
<style type="text/css">
	.st0{fill:#FFFFFF;}
	.st1{fill:#0046CB;}
</style>
<g id="_x23_ffffffff">
	<path class="st0" d="M116.2,63.1c8.4-0.5,17.5-1.5,25.3,2.6c4.6,2.4,8.5,6.3,10.9,10.9c4.4,7.9,8.8,15.9,13.1,23.8
		c2.6,4.5,0.3,10.8-4.5,12.7c-3.9,1.6-8.8,0.3-11-3.3c-5.1-8.8-9.7-18-14.9-26.8c-4.8-7.3-16.9-6.6-21,1.1
		c-18.1,32.7-36,65.4-54,98.1c-1.9,3.9-6.9,6-11,4.4c-3.7-1.1-6-4.8-6.3-8.6c0.2-3.4,2.4-6.3,3.9-9.3c16.9-30.8,33.8-61.5,50.8-92.3
		C101.2,69.4,108.3,64.3,116.2,63.1z"/>
	<path class="st0" d="M134.2,135.2c11.6-0.8,23.2-0.1,34.8-0.3c4.7,0.4,9.8-0.5,14,2.1c2.5,1.4,4.6,3.5,6,6
		c5.5,10,11,19.9,16.5,29.9c2.1,3.5,2.1,8.6-1,11.6c-3.9,3.9-11.4,3.4-14.2-1.6c-5.5-9.6-10.7-19.4-16.1-29.1
		c-1.2-2.2-3.6-3.7-6.1-3.6c-8-0.1-16.1,0-24.1,0c-2.8-0.2-5.4,1.6-6.7,4.1c-5.2,9.5-10.4,19-15.7,28.4c-1.9,3.7-6.8,5.6-10.6,3.9
		c-5.1-1.6-7.8-8.1-5.2-12.8c5.1-9.5,10.4-18.9,15.6-28.4C123.7,140.2,128.3,135.7,134.2,135.2z"/>
</g>
<g id="_x23_0046cbff">
	<path class="st1" d="M35.7,0h179c9.1,1.2,18,5.2,24.3,12c6.4,6.5,10.1,15.4,10.9,24.4v176.9c-0.8,9.4-4.8,18.5-11.5,25.2
		c-6.6,6.7-15.7,10.6-25,11.5H36c-8.7-1-17.1-4.5-23.5-10.5C5.4,233,1,223.8,0,214.2V35.7c1-9,4.9-17.8,11.4-24.2
		C17.8,4.9,26.6,1,35.7,0 M116.2,63.1c-7.9,1.2-15,6.3-18.7,13.4c-16.9,30.8-33.8,61.5-50.8,92.3c-1.6,3-3.7,5.8-3.9,9.3
		c0.2,3.7,2.5,7.5,6.3,8.6c4.1,1.6,9.1-0.5,11-4.4c18-32.7,36-65.4,54-98.1c4-7.7,16.2-8.4,21-1.1c5.2,8.8,9.8,17.9,14.9,26.8
		c2.2,3.6,7.2,4.9,11,3.3c4.8-1.9,7.1-8.2,4.5-12.7c-4.3-7.9-8.7-15.9-13.1-23.8c-2.5-4.6-6.3-8.5-10.9-10.9
		C133.8,61.6,124.6,62.6,116.2,63.1 M134.2,135.2c-5.9,0.6-10.5,5-12.8,10.2c-5.2,9.5-10.5,18.9-15.6,28.4
		c-2.5,4.7,0.2,11.2,5.2,12.8c3.8,1.7,8.7-0.3,10.6-3.9c5.3-9.4,10.4-19,15.7-28.4c1.2-2.5,3.8-4.3,6.7-4.1c8,0,16.1,0,24.1,0
		c2.5-0.1,4.9,1.4,6.1,3.6c5.4,9.7,10.6,19.4,16.1,29.1c2.9,4.9,10.3,5.5,14.2,1.6c3.1-3,3-8.1,1-11.6c-5.5-10-11-19.9-16.5-29.9
		c-1.4-2.5-3.4-4.7-6-6c-4.2-2.6-9.3-1.7-14-2.1C157.4,135.1,145.8,134.4,134.2,135.2z"/>
</g>
</svg>
